X: 350
T: Lonesome Fiddle Blues
C:Vassar Clements
B: jims roots
L:1/8
Q: 1/4=100
K:Dm
V:1 
|:"Dm"D2DE FEFG | AGFE DCA,G, | "C"C=B,CE DCA,C | G^F=FE DCA,G, |
"Dm"D2DE FEFG | [1 AGFE DCA,C | FGAd fedc | "A"AGFE "Dm"D2D2:|
[2 AGFE DCD2 | gfed fedc | "A"AGFD "Dm"CDD2 ||
"E"EF^GE FGAF | GABB AB^cB | Ac=c^c [ce]c=c^c | [ce]c [c2e2][e4a4] ||
"Dm"D2 DE FEFG | AGFE DCA,G, | gf3 dc3 | "A"AF3 "Dm"D^C D2|]
V:K:D 
G,B,DF GABd | gfga bage | "D"f=f^fb afed | BcdB =cBAF |
V:K:Dm 
"Dm"D2DE FEDD | ADFE DFED | C=B,C_E DCA,C | E2 DCA,2 D2- |
% abcbook-tune_id 6298c245c12800f48c97708d


% abcbook-boost 0
% abcbook-tablature 
% abcbook-transpose 
% abcbook-lastupdated 1654178373140
% abcbook-soundfonts 
% abcbook-repeats 1


